production/images/icons/warehouse.svg

<svg width="48" height="48" viewBox="0 0 48 48" fill="none" xmlns="http://www.w3.org/2000/svg">
<path d="M42.487 15.4798L24.6745 3.209C24.2692 2.93033 23.734 2.93033 23.3271 3.209L5.51458 15.4798C5.19158 15.7015 5 16.0673 5 16.4583V39.4167C5 40.2907 5.70933 41 6.58333 41H9.75V22C9.75 21.126 10.4593 20.4167 11.3333 20.4167H36.6667C37.5407 20.4167 38.25 21.126 38.25 22V41H41.4167C42.2907 41 43 40.2907 43 39.4167V16.4583C43 16.0673 42.8084 15.7015 42.487 15.4798Z" fill="#2E390E"/>
<path d="M19.6475 33.0835V34.271C19.6475 34.9265 19.1155 35.4585 18.46 35.4585C17.8045 35.4585 17.2725 34.9265 17.2725 34.271V33.0835H14.5016C14.0646 33.0835 13.71 33.4382 13.71 33.8752V40.2085C13.71 40.6455 14.0646 41.0002 14.5016 41.0002H22.4183C22.8553 41.0002 23.21 40.6455 23.21 40.2085V33.8752C23.21 33.4382 22.8553 33.0835 22.4183 33.0835H19.6475Z" fill="#2E390E"/>
<path d="M30.7275 33.0835V34.271C30.7275 34.9265 30.1955 35.4585 29.54 35.4585C28.8845 35.4585 28.3525 34.9265 28.3525 34.271V33.0835H25.5817C25.1447 33.0835 24.79 33.4382 24.79 33.8752V40.2085C24.79 40.6455 25.1447 41.0002 25.5817 41.0002H33.4984C33.9354 41.0002 34.29 40.6455 34.29 40.2085V33.8752C34.29 33.4382 33.9354 33.0835 33.4984 33.0835H30.7275Z" fill="#2E390E"/>
<path d="M25.1875 23.5835V24.771C25.1875 25.4265 24.6555 25.9585 24 25.9585C23.3445 25.9585 22.8125 25.4265 22.8125 24.771V23.5835H20.0417C19.6047 23.5835 19.25 23.9382 19.25 24.3752V30.7085C19.25 31.1455 19.6047 31.5002 20.0417 31.5002H27.9583C28.3953 31.5002 28.75 31.1455 28.75 30.7085V24.3752C28.75 23.9382 28.3953 23.5835 27.9583 23.5835H25.1875Z" fill="#2E390E"/>
</svg>

<svg width="48" height="48" viewBox="0 0 48 48" fill="none" xmlns="http://www.w3.org/2000/svg"><path d="M42.487 15.48L24.674 3.209a1.19 1.19 0 00-1.347 0L5.515 15.479a1.186 1.186 0 00-.515.98v22.958C5 40.29 5.71 41 6.583 41H9.75V22c0-.874.71-1.583 1.583-1.583h25.334c.874 0 1.583.709 1.583 1.583v19h3.167C42.29 41 43 40.29 43 39.417V16.458c0-.39-.192-.756-.513-.978z" fill="#2E390E"/><path d="M19.648 33.084v1.187a1.188 1.188 0 01-2.375 0v-1.188h-2.771a.792.792 0 00-.792.792v6.334c0 .436.355.791.792.791h7.916a.792.792 0 00.792-.791v-6.334a.792.792 0 00-.792-.791h-2.77zm11.079 0v1.187a1.188 1.188 0 01-2.375 0v-1.188h-2.77a.792.792 0 00-.792.792v6.334c0 .436.355.791.792.791h7.916a.792.792 0 00.792-.791v-6.334a.792.792 0 00-.792-.791h-2.77zm-5.539-9.5v1.187a1.188 1.188 0 01-2.375 0v-1.188h-2.771a.792.792 0 00-.792.792v6.334c0 .436.355.791.792.791h7.916a.792.792 0 00.792-.791v-6.334a.792.792 0 00-.792-.791h-2.77z" fill="#2E390E"/></svg>
